en/_assets/websql/palette.svg

<svg width="16" height="16" viewBox="0 0 16 16" fill="none" xmlns="http://www.w3.org/2000/svg">
    <path fill-rule="evenodd" clip-rule="evenodd" d="M3 1.5H13C13.8284 1.5 14.5 2.17157 14.5 3V8H16V3C16 1.34315 14.6569 0 13 0H3C1.34315 0 0 1.34315 0 3V13C0 14.6569 1.34315 16 3 16H8V14.5H3C2.17157 14.5 1.5 13.8284 1.5 13V3C1.5 2.17157 2.17157 1.5 3 1.5ZM13.1904 11.3452C13.1904 12.3643 12.3643 13.1904 11.3452 13.1904C10.3261 13.1904 9.5 12.3643 9.5 11.3452C9.5 10.3261 10.3261 9.5 11.3452 9.5C12.3643 9.5 13.1904 10.3261 13.1904 11.3452ZM13.1204 14.1811C12.6059 14.5038 11.9973 14.6904 11.3452 14.6904C9.4977 14.6904 8 13.1927 8 11.3452C8 9.4977 9.4977 8 11.3452 8C13.1927 8 14.6904 9.4977 14.6904 11.3452C14.6904 11.9974 14.5038 12.6059 14.181 13.1204L15.7782 14.7176C16.0711 15.0105 16.0711 15.4854 15.7782 15.7783C15.4853 16.0712 15.0105 16.0712 14.7176 15.7783L13.1204 14.1811ZM3.46967 8.46967C3.17678 8.76256 3.17678 9.23744 3.46967 9.53033C3.76256 9.82322 4.23744 9.82322 4.53033 9.53033L7.03033 7.03033C7.17098 6.88968 7.25 6.69891 7.25 6.5C7.25 6.30109 7.17098 6.11032 7.03033 5.96967L4.53033 3.46967C4.23744 3.17678 3.76256 3.17678 3.46967 3.46967C3.17678 3.76256 3.17678 4.23744 3.46967 4.53033L5.43934 6.5L3.46967 8.46967Z" fill="currentColor"/>
</svg>

<svg xmlns="http://www.w3.org/2000/svg" width="16" height="16" fill="none" viewBox="0 0 16 16">
    <path fill="currentColor" fill-rule="evenodd" d="M3 1.5h10A1.5 1.5 0 0 1 14.5 3v5H16V3a3 3 0 0 0-3-3H3a3 3 0 0 0-3 3v10a3 3 0 0 0 3 3h5v-1.5H3A1.5 1.5 0 0 1 1.5 13V3A1.5 1.5 0 0 1 3 1.5Zm10.19 9.845a1.845 1.845 0 1 1-3.69 0 1.845 1.845 0 0 1 3.69 0Zm-.07 2.836a3.345 3.345 0 1 1 1.06-1.06l1.598 1.597a.75.75 0 0 1-1.06 1.06l-1.598-1.597ZM3.47 8.47a.75.75 0 0 0 1.06 1.06l2.5-2.5a.75.75 0 0 0 0-1.06l-2.5-2.5a.75.75 0 0 0-1.06 1.06L5.44 6.5 3.47 8.47Z" clip-rule="evenodd"/>
</svg>
